X:635
T: Thomas'
T: Cornph\'iopa Thom\'ais
S: B.Breathnach:"Ceol Rince na hEireann" IV/212
Z: B.Black
L: 1/8
M: 4/4
R: hornpipe
K: D
Ac|dcde dAGF|E2 ge dcBA|G2 eG F2 dF|EFGA GFED|
dcde dAGF|E2 ge dcBA|G2 eG F2 dF|gedc d2 :|
cd|ecBA ecBA|Bgfa dcBA|G2 eG F2 dF|EFGA GFED|
dcde dAGF|E2 ge dcBA|G2 eG F2 ef|gedc d2 :|
